!!!!SEGMENT: pl-sa--597-a-ix-77--002_anonim--ulubiony-walc.krn
!!!cenid: 18xx:638
!!!COM: Anonim
!!!COM-rismID: pe30004985
!!!CDT:
!!!CNT:
!!!OTL: Ulubiony Walc
!!!PDT:
!!!AGN: Secular; Waltz
!!!SMS-siglum: PL-SA
!!!SMS-shelfmark: 597/A IX 77
!!!SMS-shelfwork: 002 W
!!!SMS-variant:
!!!SMS-altvar:
!!!NIFC-rismSourceID: 1001065722
!!!NIFC-islandoraID:
!!!URL-pdf-islandora:
!!!URL-scan: https://bc.bdsandomierz.pl/dlibra/publication/1405/edition/1373/content @EN{Scan in the Sandomierz Diocese Digital Library} @PL{Skany w portalu Cyfrowa Biblioteka Diecezjalna w Sandomierzu}
!!!ONB-nifc: Str. 2 – str. 3 (s. 1)
!!!AIN: 2 empty
!!!key:
**kern	**kern	**dynam
*part2	*part1	*part1
*staff2	*staff1	*
*clefF4	*clefG2	*
*Iempty	*Iempty	*
*I"	*I"	*
*I'keyb	*I'keyb	*
*k[f#c#g#d#]	*k[f#c#g#d#]	*
*E:	*E:	*
*M3/4	*M3/4	*
*>[A,B,A]	*>[A,B,A]	*
*>A	*>A	*
!LO:TX:a:t=[segno]	!LO:TX:a:t=[segno]	!
!	!LO:TX:a:t=Ulubiony Walc Xięcia Reichstadt.	!
!LO:TX:a:t=P:problem=krzyżyki wpisane niedokładnie - E# BB# G# C#	!LO:TX:a:t=P:problem=krzyżyki wpisane niedokładnie - ff# b# gg# cc#	!
4r	4eee 4ee\	.
=1	=1	=1
4BB 4BBB/	4ddd# 4dd#\	.
4A 4F# 4D# 4BB\	4r	.
4A 4F# 4D# 4BB\	4ccc# 4cc#\	.
=2	=2	=2
4BB 4BBB/	4bb 4b\	.
4A 4F# 4D# 4BB\	4r	.
4A 4F# 4D# 4BB\	4aa#X 4a#X\	.
=3	=3	=3
4E 4EE/	4ccc# 4cc#\	.
4B 4G# 4E\	4r	.
4B 4G# 4E\	4bb 4b\	.
=4	=4	=4
4E 4EE/	8gg#L 8ee\	.
.	8b\J	.
4B 4G# 4E\	8gg#L 8ee\	.
.	8b\J	.
4B 4G# 4E\	8gg#L 8ee\	.
.	8b\J	.
=5	=5	=5
4BB 4BBB/	4aa 4ff#\	.
4A 4F# 4D# 4BB\	4r	.
4A 4F# 4D# 4BB\	4b\	.
=6	=6	=6
4BB 4BBB/	(8ff#L 8dd#\	.
.	8b\)	.
4A 4F# 4D# 4BB\	8ff# 8dd#\	.
.	8ff#J 8dd#\	.
4A 4F# 4D# 4BB\	4ff# 4dd#\	.
=7	=7	=7
4E 4EE/	4gg# 4ee\	.
4B 4G# 4E\	4r	.
4B 4G# 4E\	4bb 4b\	.
=8	=8	=8
4E 4EE/	8eeeL 8gg#\	.
.	8ee\	.
4B 4G# 4E\	8eee 8gg#\	.
.	8ee\J	.
4B 4G# 4E\	4eee 4gg#\	.
!!LO:LB:g=original
=9	=9	=9
4BB 4BBB/	4ddd# 4dd#\	.
4A 4F# 4D# 4BB\	4r	.
4A 4F# 4D# 4BB\	4ccc# 4cc#\	.
=10	=10	=10
4BB 4BBB/	4bb 4b\	.
4A 4F# 4D# 4BB\	4r	.
4A 4F# 4D# 4BB\	4aa#X 4a#X\	.
=11	=11	=11
4E 4EE/	4ccc# 4cc#\	.
4B 4G# 4E\	4r	.
4B 4G# 4E\	4bb 4b\	.
=12	=12	=12
4E 4EE/	8bbL 8gg#\	.
.	8b\	.
4B 4G# 4E\	8bb 8gg#\	.
.	8bbJ 8gg#\	.
4B 4G# 4E\	4bb 4gg#\	.
=13	=13	=13
4BB 4BBB/	4aa 4ff#\	.
4A 4F# 4D# 4BB\	4r	.
4A 4F# 4D# 4BB\	4b\	.
=14	=14	=14
4BB/	8ff#L 8dd#\	.
.	8b\	.
4B 4F# 4D#\	8ff# 8dd#\	.
.	8ff#J 8dd#\	.
4BB/	4ff# 4dd#\	.
=15	=15	=15
4E\	4ee\	.
4G#\	8dd#\L	.
.	8ee\	.
4B\	8bb\	.
.	8gg#\J	.
=16	=16	=16
!	!LO:TX:b:i:t=Fine	!
4e\	4ee\	.
4E\	4r	.
=||;	=||;	=||
*>B	*>B	*
4r	4ddd# 4dd#\	.
!!LO:LB:g=original
=17	=17	=17
4A#X 4F#\	4eee 4ee\	.
4e 4c# 4A#\	4r	.
4e 4c# 4A#\	4fff# 4ff#\	.
=18	=18	=18
4F#\	4ggg# 4gg#\	.
4e 4c# 4A#X\	4r	.
4e 4c# 4A#\	4eee 4ee\	.
=19	=19	=19
4B 4BB\	4ddd# 4dd#\	.
4d# 4B\	4r	.
4d# 4B\	4eee 4ee\	.
=20	=20	=20
*	*2\right	*
4B 4BB\	2.fff# 2.ff#\	.
4d# 4B\	.	.
4d# 4B\	.	.
=21	=21	=21
4F#\	4ccc# 4cc#\	.
4e 4c# 4A#X\	4r	.
4e 4c# 4A#\	4ddd# 4dd#\	.
=22	=22	=22
4F#\	2.eee 2.ee\	.
4e 4c# 4A#X\	.	.
4e 4c# 4A#\	.	.
=23	=23	=23
4B 4BB\	4bb 4b\	.
4d# 4B\	4r	.
4d# 4B\	4ccc# 4cc#\	.
=24	=24	=24
4B 4BB\	2.ddd# 2.dd#\	.
4d# 4B\	.	.
4d# 4B\	.	.
=25	=25	=25
4A#X 4F#\	4ee\	.
4e 4c# 4A#\	4r	.
4e 4c# 4A#\	4ee\	.
=26	=26	=26
4A#X 4F#\	(4.aa#X\	>
4e 4c# 4A#\	.	.
.	8gg#\L	.
4e 4c# 4A#\	8ff#\	.
.	8ee\J)	]
!!LO:PB:g=original
=27	=27	=27
4B 4BB\	4dd#\	.
4d# 4B\	4r	.
4d# 4B\	4ee\	.
=28	=28	=28
4B 4BB\	(4.gg#\	>
4d# 4B\	.	.
.	8ff#\L	.
4d# 4B\	8ee\	.
.	8dd#\J)	]
=29	=29	=29
4A#X 4F#\	4cc#\	.
4e 4c# 4A#\	4r	.
4e 4c# 4A#\	4dd#\	.
=30	=30	=30
4A#X 4F#\	(4.ff#\	>
4e 4c# 4A#\	.	.
.	8ee\L	.
4e 4c# 4A#\	8dd#\	.
.	8cc#\J)	]
=31	=31	=31
4B 4BB\	4b\	.
.	8qcc#/	.
4B 4F# 4D# 4BB\	(8b/L	.
.	8a#X/	.
4B 4F# 4D# 4BB\	8b/	.
.	8cc#/J)	.
=32	=32	=32
4B 4BB\	4b\	.
4B 4F# 4D#\	4r	.
!LO:TX:a:t=[segno]:problem=znak segno na kresce	!LO:TX:a:t=[segno]:problem=znak segno na kresce	!
4ryy	4ryy	.
=||	=||	=||
*-	*-	*-
!!!system-decoration: {s1,s2}
!!!ENC: Marta Lawrence
!!!END: 2020-12-14
!!!ENC: Andrzej Borzym
!!!END: 2020-06-19
!!!YEC: Copyright 2022 Narodowy Instytut Fryderyka Chopina (https://polishscores.org)
!!!YEM: Licence CC BY 4.0 (https://creativecommons.org/licenses/by/4.0)
